images/icon-lamp.svg

<svg enable-background="new 0 0 86 86" viewBox="0 0 86 86" xmlns="http://www.w3.org/2000/svg"><path d="m43 0c23.7 0 43 19.3 43 43s-19.3 43-43 43-43-19.3-43-43c0-23.7 19.3-43 43-43z" fill="#ef6c00"/><path d="m43.5 21c-6.5.2-11.6 5.6-11.5 12.1 0 2.1.5 4.2 1.5 6 2.8 5.3 3.6 8.3 4.1 11.2.4 2.4.9 3 2.7 3h3.3 3.3c1.8 0 2.3-.6 2.7-3 .5-2.9 1.2-5.9 4-11.2 1-1.8 1.5-3.9 1.5-6 .2-6.5-4.9-11.9-11.4-12.1-.1 0-.2 0-.2 0zm-4 34.9h8.2c.3 0 .6-.3.6-.6v-.4c0-.3-.3-.6-.6-.6h-8.2c-.3 0-.6.3-.6.6v.4c0 .3.3.6.6.6zm0 2.5h8.2c.3 0 .6-.3.6-.6v-.4c0-.3-.3-.6-.6-.6h-8.2c-.3 0-.6.3-.6.6v.4c0 .4.2.6.6.6zm8.2.9h-8.2c-.3 0-.6.3-.6.6v.4c0 .3.3.6.6.6h8.2c.3 0 .6-.3.6-.6v-.4c.1-.3-.2-.6-.6-.6 0-.1 0-.1 0 0zm-4.1 4.7c1.4 0 3.1-.9 3.1-2.2h-6.2c0 1.4 1.7 2.2 3.1 2.2z" fill="#fff"/></svg>

<?xml version="1.0" encoding="utf-8"?>
<!-- Generator: Adobe Illustrator 19.2.0, SVG Export Plug-In . SVG Version: 6.00 Build 0)  -->
<svg version="1.1" id="Layer_1" xmlns="http://www.w3.org/2000/svg" xmlns:xlink="http://www.w3.org/1999/xlink" x="0px" y="0px"
	 viewBox="0 0 86 86" style="enable-background:new 0 0 86 86;" xml:space="preserve">
<style type="text/css">
	.st0{fill:#EF6C00;}
	.st1{fill:#FFFFFF;}
</style>
<title>icon-lamp</title>
<path class="st0" d="M43,0c23.7,0,43,19.3,43,43S66.7,86,43,86S0,66.7,0,43l0,0C0,19.3,19.3,0,43,0z"/>
<path class="st1" d="M43.5,21C37,21.2,31.9,26.6,32,33.1c0,2.1,0.5,4.2,1.5,6c2.8,5.3,3.6,8.3,4.1,11.2c0.4,2.4,0.9,3,2.7,3h3.3h3.3
	c1.8,0,2.3-0.6,2.7-3c0.5-2.9,1.2-5.9,4-11.2c1-1.8,1.5-3.9,1.5-6c0.2-6.5-4.9-11.9-11.4-12.1C43.6,21,43.5,21,43.5,21z M39.5,55.9
	l8.2,0c0.3,0,0.6-0.3,0.6-0.6c0,0,0,0,0,0v-0.4c0-0.3-0.3-0.6-0.6-0.6c0,0,0,0,0,0l-8.2,0c-0.3,0-0.6,0.3-0.6,0.6c0,0,0,0,0,0v0.4
	C38.9,55.6,39.2,55.9,39.5,55.9z M39.5,58.4l8.2,0c0.3,0,0.6-0.3,0.6-0.6c0,0,0,0,0,0v-0.4c0-0.3-0.3-0.6-0.6-0.6c0,0,0,0,0,0
	l-8.2,0c-0.3,0-0.6,0.3-0.6,0.6c0,0,0,0,0,0v0.4C38.9,58.2,39.1,58.4,39.5,58.4C39.5,58.4,39.5,58.4,39.5,58.4L39.5,58.4z
	 M47.7,59.3l-8.2,0c-0.3,0-0.6,0.3-0.6,0.6c0,0,0,0,0,0v0.4c0,0.3,0.3,0.6,0.6,0.6c0,0,0,0,0,0l8.2,0c0.3,0,0.6-0.3,0.6-0.6
	c0,0,0,0,0,0v-0.4C48.4,59.6,48.1,59.3,47.7,59.3C47.7,59.2,47.7,59.2,47.7,59.3L47.7,59.3z M43.6,64c1.4,0,3.1-0.9,3.1-2.2h-6.2
	C40.5,63.2,42.2,64,43.6,64L43.6,64z"/>
</svg>
